modules/zondicons/icons/travel.svg

<?xml version="1.0" encoding="UTF-8" standalone="no"?>
<svg width="20px" height="20px" viewBox="0 0 20 20" version="1.1" xmlns="http://www.w3.org/2000/svg" xmlns:xlink="http://www.w3.org/1999/xlink">
    <!-- Generator: Sketch 3.7.2 (28276) - http://www.bohemiancoding.com/sketch -->
    <title>travel</title>
    <desc>Created with Sketch.</desc>
    <defs></defs>
    <g id="Page-1" stroke="none" stroke-width="1" fill="none" fill-rule="evenodd">
        <g id="travel" fill="#000000">
            <path d="M6,5 L1.99079514,5 C0.898212381,5 0,5.89805351 0,7.00585866 L0,16.9941413 C0,18.1029399 0.891309342,19 1.99079514,19 L3,19 L3,5 L4,5 L4,19 L16,19 L16,5 L17,5 L17,19 L18.0092049,19 C19.1017876,19 20,18.1019465 20,16.9941413 L20,7.00585866 C20,5.89706013 19.1086907,5 18.0092049,5 L14,5 L14,4 C14,2.88772964 13.1054196,2 12.0018986,2 L7.99810135,2 C6.88670635,2 6,2.8954305 6,4 L6,5 Z M8,4 L12,4 L12,5 L8,5 L8,4 Z" id="Combined-Shape"></path>
        </g>
    </g>
</svg>

<svg width="20" height="20" viewBox="0 0 20 20" xmlns="http://www.w3.org/2000/svg"><path d="M6 5H1.99C.899 5 0 5.898 0 7.006v9.988C0 18.103.891 19 1.99 19H3V5h1v14h12V5h1v14h1.01c1.092 0 1.99-.898 1.99-2.006V7.006A1.998 1.998 0 0 0 18.01 5H14V4c0-1.112-.895-2-1.998-2H7.998A1.994 1.994 0 0 0 6 4v1zm2-1h4v1H8V4z" fill="#000" fill-rule="evenodd"/></svg>
